public/images/icons/search.svg

<svg width="25" height="25" viewBox="0 0 25 25" fill="none" xmlns="http://www.w3.org/2000/svg">
<path d="M10 0C4.489 0 0 4.489 0 10C0 15.511 4.489 20 10 20C12.3965 20 14.5974 19.149 16.3223 17.7363L22.293 23.707C22.3851 23.803 22.4955 23.8796 22.6176 23.9324C22.7397 23.9852 22.8712 24.0131 23.0042 24.0144C23.1373 24.0158 23.2692 23.9906 23.3924 23.9403C23.5156 23.89 23.6275 23.8157 23.7216 23.7216C23.8157 23.6275 23.89 23.5156 23.9403 23.3924C23.9906 23.2692 24.0158 23.1373 24.0144 23.0042C24.0131 22.8712 23.9852 22.7397 23.9324 22.6176C23.8796 22.4955 23.803 22.3851 23.707 22.293L17.7363 16.3223C19.149 14.5974 20 12.3965 20 10C20 4.489 15.511 0 10 0ZM10 2C14.4301 2 18 5.56988 18 10C18 14.4301 14.4301 18 10 18C5.56988 18 2 14.4301 2 10C2 5.56988 5.56988 2 10 2Z" fill="white"/>
</svg>

<svg width="25" height="25" fill="none" xmlns="http://www.w3.org/2000/svg"><path d="M10 0C4.489 0 0 4.489 0 10s4.489 10 10 10a9.947 9.947 0 0 0 6.322-2.264l5.971 5.971a1 1 0 1 0 1.414-1.414l-5.97-5.97A9.947 9.947 0 0 0 20 10c0-5.511-4.489-10-10-10Zm0 2c4.43 0 8 3.57 8 8s-3.57 8-8 8-8-3.57-8-8 3.57-8 8-8Z" fill="#fff"/></svg>
